X:1
T:Muireann's Jig, pt.1
C:Niall Vallely
R:jig
M:6/8
L:1/8
K:BMin
dBA ~B3|def ede|f2e ede|faf efe|
dBA ~B3|def ede|fba fed|fee edB:|
BAB e3|BAB fef|Bba fed|fee edB|
BAB e2B|BAB fef|baf aba|fee edB:|
<abc>
